X: 1
T:The Bishop
T:to the tune of Miss Dollands Delight
M:C|
L:1/8
Q:C4=128
B:The Round Band Book of Playford
K:A
"A"A2 a4 g2-|"D"g2 f4 "A"e2 | \
"D"f2a2 "A"e2c2 | "Bm"d2B2 "E7"A2G2 | \
"A"A2 a4 g2-| "D"g2 f4 "A"e2 | \
"D"f2 a2 "B7"B2^d2 |"E"e4 E4 :: \
"E7"E2 d4 cB | "A"c2 e4 d2 | \
"A"c2a2 A2c2 | "E7"B2E2 E4 | \
"A"A2 c4 BA | "D" B2 a2 g2 f2 | \
"E7" e2 d2 c2 B2 | "A" A4 A,4 :|
